dist/svg/parking-line.svg

<svg xmlns="http://www.w3.org/2000/svg" viewBox="0 0 24 24"><path d="M11.34 3.281A8.68 8.68 0 0 0 5.819 5.82c-1.344 1.343-2.192 3.027-2.485 4.94-.096.63-.096 1.85 0 2.48.398 2.594 1.87 4.839 4.07 6.205 1.518.943 3.456 1.42 5.206 1.282 2.156-.17 4.071-1.045 5.57-2.546 1.505-1.508 2.377-3.414 2.547-5.571.214-2.714-.976-5.533-3.073-7.281-1.795-1.495-4.014-2.215-6.314-2.048m1.892 1.575a7.25 7.25 0 0 1 3.883 2.029c1.088 1.088 1.776 2.428 2.052 3.995.032.183.052.62.052 1.12s-.02.937-.052 1.12c-.275 1.564-.96 2.9-2.047 3.992-1.037 1.042-2.281 1.708-3.76 2.013-.404.084-.569.095-1.36.095s-.956-.011-1.36-.095c-1.461-.301-2.72-.97-3.731-1.981-1.122-1.122-1.79-2.418-2.075-4.024-.071-.4-.071-1.84 0-2.24a9 9 0 0 1 .384-1.441 7.4 7.4 0 0 1 4.221-4.221c.522-.201 1.029-.32 1.861-.435.266-.037 1.615.014 1.932.073M9.82 6.275a.73.73 0 0 0-.538.516c-.06.215-.057 10.213.003 10.428.059.213.293.441.513.5.4.108.812-.12.92-.51.026-.094.042-.943.042-2.299v-2.15h.975c1.088 0 1.481-.047 1.965-.235.601-.233 1.27-.81 1.612-1.389.463-.783.565-1.792.27-2.678-.164-.489-.385-.829-.818-1.258-.307-.303-.458-.418-.75-.571-.661-.344-.764-.359-2.534-.373-.847-.007-1.594.002-1.66.019m3.12 1.539A1.745 1.745 0 0 1 14.239 9.5c0 .781-.507 1.45-1.274 1.683-.138.042-.444.056-1.195.057h-1.01V7.76h.99c.698.001 1.049.017 1.19.054" fill-rule="evenodd"/></svg>

<svg fill="none" xmlns="http://www.w3.org/2000/svg" viewBox="0 0 24 24"><path d="M11.340 3.281 C 9.259 3.432,7.316 4.326,5.819 5.820 C 4.475 7.163,3.627 8.847,3.334 10.760 C 3.238 11.390,3.238 12.610,3.334 13.240 C 3.732 15.834,5.204 18.079,7.404 19.445 C 8.922 20.388,10.860 20.865,12.610 20.727 C 14.766 20.557,16.681 19.682,18.180 18.181 C 19.685 16.673,20.557 14.767,20.727 12.610 C 20.941 9.896,19.751 7.077,17.654 5.329 C 15.859 3.834,13.640 3.114,11.340 3.281 M13.232 4.856 C 14.742 5.135,16.048 5.818,17.115 6.885 C 18.203 7.973,18.891 9.313,19.167 10.880 C 19.199 11.063,19.219 11.500,19.219 12.000 C 19.219 12.500,19.199 12.937,19.167 13.120 C 18.892 14.684,18.207 16.020,17.120 17.112 C 16.083 18.154,14.839 18.820,13.360 19.125 C 12.956 19.209,12.791 19.220,12.000 19.220 C 11.209 19.220,11.044 19.209,10.640 19.125 C 9.179 18.824,7.920 18.155,6.909 17.144 C 5.787 16.022,5.119 14.726,4.834 13.120 C 4.763 12.720,4.763 11.280,4.834 10.880 C 4.921 10.392,5.077 9.804,5.218 9.439 C 5.965 7.504,7.504 5.965,9.439 5.218 C 9.961 5.017,10.468 4.898,11.300 4.783 C 11.566 4.746,12.915 4.797,13.232 4.856 M9.820 6.275 C 9.552 6.344,9.353 6.535,9.282 6.791 C 9.222 7.006,9.225 17.004,9.285 17.219 C 9.344 17.432,9.578 17.660,9.798 17.719 C 10.198 17.827,10.610 17.599,10.718 17.209 C 10.744 17.115,10.760 16.266,10.760 14.910 L 10.760 12.760 11.735 12.760 C 12.823 12.760,13.216 12.713,13.700 12.525 C 14.301 12.292,14.970 11.715,15.312 11.136 C 15.775 10.353,15.877 9.344,15.582 8.458 C 15.418 7.969,15.197 7.629,14.764 7.200 C 14.457 6.897,14.306 6.782,14.014 6.629 C 13.353 6.285,13.250 6.270,11.480 6.256 C 10.633 6.249,9.886 6.258,9.820 6.275 M12.940 7.814 C 13.708 8.020,14.239 8.709,14.239 9.500 C 14.239 10.281,13.732 10.950,12.965 11.183 C 12.827 11.225,12.521 11.239,11.770 11.240 L 10.760 11.240 10.760 9.500 L 10.760 7.760 11.750 7.760 C 12.448 7.761,12.799 7.777,12.940 7.814 " stroke="none" fill-rule="evenodd" fill="currentColor"/></svg>
